X:1
T:Title
%%score { 1 | 2 }
L:1/8
M:3/4
K:F
V:1 treble nm="Grand Piano"
V:2 bass 
V:1
 z2 z2[Q:1/4=100] C2 | A[EG] F2 A2 | BA [EG]2 [Ec]2 | [Fc]3 [DFB] [CFA][B,EG] | %4
[M:2/4] [A,F][CEG] A2 |[M:1/4] C2 |[M:3/4] AG F2 A2 | BA [EG]2 [Ec]2 | [Fc]3 [DFB] [CFA][B,EG] | %9
[M:2/4] F4 |[M:1/4] A2 |[M:3/4] A3 A AA | B4 [EG]2 | [EG]3 [EG] [EG][EG] |[M:2/4] [CFA]4 | %15
[M:1/4] [A,C]2 |[M:3/4] [CFA][B,EG] [A,F]2 [CFA]2 | [CEB][CFA] [CEG]2 [Ec]2 | %18
 [Fc]3 [DFB] [CFA][B,EG] |[M:2/4] [A,F]4 |] %20
V:2
 z2 z2 [F,A,]2 | [F,CF][C,B,] [F,A,C]2 [F,CF]2 | [G,CE][F,CF] [C,C]2 [C,B,]2 | [F,A,]3 B,, C,C, | %4
[M:2/4] C,C, [F,CF]2 |[M:1/4] [F,A,]2 |[M:3/4] [F,CF][F,B,E] [F,A,]2 [F,CF]2 | %7
 [G,CE][F,CF] [C,C]2 [C,B,]2 | [F,A,]3 B,, C,C, |[M:2/4] [F,A,]4 |[M:1/4] [F,CF]2 | %11
[M:3/4] [F,CF]3 [F,CF] [F,CF][F,CF] | [G,CE]4 [C,C]2 | [C,C]3 [C,C] [C,C][C,C] |[M:2/4] F,4 | %15
[M:1/4] F,2 |[M:3/4] F,C, F,2 F,2 | G,F, B,,2 [C,B,]2 | [F,A,]3 B,, C,C, |[M:2/4] F,4 |] %20

